ui/StatusQ/src/assets/img/icons/bigger/send.svg

<svg fill="none" height="24" viewBox="0 0 24 24" width="24" xmlns="http://www.w3.org/2000/svg"><path clip-rule="evenodd" d="m11.6192 18.1568-6.61756 2.7249c-.54765.2255-1.09216-.3287-.85708-.8723l7.15694-16.55047c.1205-.27858.395-.45893.6985-.45893s.578.18035.6984.45893l7.157 16.55047c.2351.5436-.3094 1.0978-.8571.8723l-6.6176-2.7249c-.2439-.1005-.5176-.1004-.7615 0zm-.3692-1.675c0 .1278-.0837.2393-.2019.288l-3.56877 1.4695c-.41489.1708-.82739-.249-.64931-.6608l3.94048-9.11243c.1077-.24912.4795-.17219.4795.09923zm1.5 0c0 .1278.0837.2393.2019.288l3.5687 1.4695c.4149.1708.8274-.249.6493-.6608l-3.9405-9.11243c-.1077-.24912-.4794-.17219-.4794.09923z" fill="#4360df" fill-rule="evenodd"/></svg>

<svg width="24" height="24" viewBox="0 0 24 24" fill="none" xmlns="http://www.w3.org/2000/svg">
<path fill-rule="evenodd" clip-rule="evenodd" d="M11.6192 18.1568L5.00164 20.8817C4.45399 21.1072 3.90948 20.553 4.14456 20.0094L11.3015 3.45893C11.422 3.18035 11.6965 3 12 3C12.3035 3 12.578 3.18035 12.6984 3.45893L19.8554 20.0094C20.0905 20.553 19.546 21.1072 18.9983 20.8817L12.3807 18.1568C12.1368 18.0563 11.8631 18.0564 11.6192 18.1568ZM11.25 16.4818C11.25 16.6096 11.1663 16.7211 11.0481 16.7698L7.47933 18.2393C7.06444 18.4101 6.65194 17.9903 6.83002 17.5785L10.7705 8.46607C10.8782 8.21695 11.25 8.29388 11.25 8.5653V16.4818ZM12.75 16.4818C12.75 16.6096 12.8337 16.7211 12.9519 16.7698L16.5206 18.2393C16.9355 18.4101 17.348 17.9903 17.1699 17.5785L13.2294 8.46607C13.1217 8.21695 12.75 8.29388 12.75 8.5653V16.4818Z" fill="#4360DF"/>
</svg>
